!!!SOCIAL_FUNCTION: miscellaneous dance songs
!!!PDT:	1943
!!!LING_GROUP: Muskogean
!!!LANG: Non-Tone
Specific Region: Oklahoma, California, Mississippi, Louisiana, Texas, Alabama
!!!REG: Southeast
!!!COM: Anon.
!!!OTL: Stomp Dance Song (k)
!!!ODT: <1933//
!!!MPN: Robert Henry
!!!MLC: Philadelphia, Mississippi, United States of America
!! Song was recorded in January 1933.
!!!AGN: monody
!!!AMT: irregular
!!!RWG: Transcribed pitches, durations, and meters are only approximate.
**kern
*ICvox
*Imale
*clefF4
*k[f#c#g#d#a#]
*M2/4
*MM63
*[A,B,B]
*>A
=1-
8B
16G#
16G#
16G#
16G#
8G#
=2
8.B
16B
16G#
16G#
8B
=3
8.B
16G#
16G#
16G#
8G#
=4
8.d#
16B
16c#
16B
8B
=5
8.B
16G#
16G#
16G#
8G#
*M3/4
*MM96
=6
8.d#
16c#
8B
16c#
8B
8B
*M2/4
*MM63
=7
8.B
16G#
16G#
16G#
8G#
=8
8.B
16B
16G#
16G#
8B
=9
8.B
16G#
16G#
16G#
8G#
*M3/4
*MM96
=10
8.d#
16c#
16B
8.G#
4B
*M2/4
*M63
=11
8.B
16G#
16G#
16G#
8G#
*>B
=!|:12
8.d#
16B
16c#
16c#
8c#
=13
8.B
16G#
16G#
16G#
8G#
=14
8.B
16B
16G#
16G#
8B
=15
8.B
16G#
16G#
16G#
8G#
=15
8.B
16B
16G#
16G#
8B
=17
8.B
16G#
16G#
16G#
8G#
=18
16c#
8B
16G#
16G#
16G#
8B
=19
8.B
16G#
16G#
16G#
8G#
==:|!
*-
!!!CNT: Choctaw
!!!TXO: Choctaw
!!!OCY: United States
!!!OCL: Frances Densmore
!!!YOR: Frances Densmore, "Choctaw Music"
!!!YOR: Bulletin 136, page 170, No. 54
!!!PPR: Smithsonian Institution, Bureau of American Ethnology
!!!PPR: Government Printing Office
!!!PDT: 1943
!!!PPP: Washington, DC, United States of America
!!!YEC: Electronic Copyright 2000 David Huron
!!!YER: August 2000
!!!YEN: United States of America
!!!ENC: David Huron
!!!RDT: August 29, 2000
!!!EEV: Release 1.0
!!!AIN: vox
